X:187
T:Prayer of the week - trad
%%VWML:SBG-1-2--0
F:http://www.vwml.org/record/SBG/1/2/
Z:Original Sibelius transcriptions by M. & S. Graebe
M:4/4
I:linebreak $
K:G
V:1 treble nm="P1"
V:1
 B2 (GA) B2 de | (df) (ed) (B2 G2) | A2 (Bc) (ed) (BG) | B2 (cB) d4 |$ (B2 cB) e2 (fe) | %5
w: Mat- th- ew Mark and _|Lu- ke and _ Jo- hn|Bless the _ bed _ that _|I lie _ on|Fo- ur _ an- gels _|
 (dB) (AG) (c2 B2) | d2 (ed) (BG) (FG) | B2 A2 B4 |$ f2 e2 (dB) (Gc) | B2 A2 B4 | f2 e2 (dB) Gc | %11
w: rou- nd my- * bed _|Two to _ bot- * tom _|two to head|Two to he- ar me _|when I pray|Two to be- ar my _|
 B2 A2 G4 | %12
w: soul a- way|




